X:55
T:Duke of York’s March,The. RH.055
R:March
S:Rev.R.Harrison’s MS,c1815,Cumbria
O:England
A:Temple Sowerby,Cumbria
Z:vmp.Simon Wilson. Review PJH, 2008.
M:C
L:1/8
Q:2/4=80
K:D
D2D>D F2F>F|(AF)(AF) D2A>A|(dA)(dA) dAFD|\
A2A>A A2z2|!
(a3f) d2d2|e2e>g f2za|\
a3f fdgf|e2e>e e2z2:|!
|:A2A>A c(efg)|A2A>A .A(def)|(ge)ee (fd)dd|\
(ba)(gf) f2e2|!
d3(f/e/) dGB=c|=cBB4(^c/d/e/f/)|\
ggff eedd|e2e>e e2z2|!
D2D>D F2F>F|\
(AF)(AF) D2g2|(fa)(af) (ge)dc|d2d>d d2z2:|!
K:A
|:A3c BABA|A2c2 A2c2|c3e dcdB|c2e2 B2e2|!
e3a a3e|f3g {b}a2gf|e2ae (ed)(dc)|c4 B2z2:|!
|:B3c dcdB|c2e2 a2c’2|B3c dcdB|c2A>A A2z2|!
f3g a2gf|e3a a3c’|b2a2 b2g2|a2a>a a2″ DC”z2:|

